X:1
T:Title
%%score { 1 | ( 2 3 ) }
L:1/8
Q:1/4=100
M:4/4
K:Ab
V:1 treble nm="Grand Piano"
V:2 bass 
V:3 bass 
V:1
 [Ec]2 [CE]2 [Ec]2 [Fd]>[Ec] | B2 F2 B4 | B2 E2 B2 c>B | [CA]2 [CE]2 [CA]4 | %4
w: W.~A.~Ogden * * * *||||
 [Ec]2 [CE]2 [Ec]2 [Fd]>[Ec] | [DB]2 [DF]2 [FB]2 [FA]2 | [EG]>[FA] [GB]>[Ac] [Bd]2 [DEG]2 | %7
w: |||
 [CEA]6 z2 | [GB]>A G>A [GB]2 [Ge]2 | [Ge]2 [F=d]2 [Fd]4 | [FA]>G F>G [B,FA]2 c2 | %11
w: ||||
 [Ac]2 [GB]2 [EG]4 | [GB]>A G>A [GB]2 [Ge]2 | [Ge]2 [F=d]2 [Fd]2 [Ac]2 | %14
w: |||
 [GB]>c B>A [B,EG]2 [A,=DF]2 | [G,E]6 z2 | [Ec]2 [CE]2 [Ec]2 [Fd]>[Ec] | B2 F2 B4 | B2 E2 B2 c>B | %19
w: |||||
 [CA]2 [CE]2 [CA]4 | [Ec]2 [CE]2 [Ec]2 [Fd]>[Ec] | [DB]2 [DF]2 [FB]2 [FA]2 | %22
w: |||
 [EG]>[FA] [GB]>[Ac] [Bd]2 [DEG]2 |[M:8/4] [CEA]8 z8 |] %24
w: ||
V:2
 [A,,A,]2 [A,,A,]2 [A,,A,]2 [A,,A,]>[A,,A,] | [D,F,D]2 [D,F,D]2 [D,F,D]4 | %2
 [E,G,D]2 [E,G,D]2 [E,G,D]2 [E,G,E]>[E,G,D] | [A,,A,]2 [A,,A,]2 [A,,A,]4 | %4
 [A,,A,]2 [A,,A,]2 [A,,A,]2 [A,,A,]>[A,,A,] | [D,F,]2 [D,B,]2 [D,B,]2 [=D,B,]2 | %6
 [E,B,]>[E,B,] [E,B,]>[E,A,] [E,G,]2 E,2 | A,,6 z2 | z z/[K:treble] F/ E>F[K:bass] [E,G,B,]2 z2 | %9
 [B,,,B,,]2 z2 [B,,B,]2 z2 | z z/ E/ =D>E B,,2 A2 | [E,,E,]2 z2 [E,G,B,]2 z2 | %12
 z z/[K:treble] F/ E>F[K:bass] [E,,E,]2 z2 | [B,,,B,,]2 z2 [B,,B,]2 z2 | %14
 z z/[K:treble] A/ G>F[K:bass] B,,2 B,,2 | E,6 z2 | [A,,A,]2 [A,,A,]2 [A,,A,]2 [A,,A,]>[A,,A,] | %17
 [D,F,D]2 [D,F,D]2 [D,F,D]4 | [E,G,D]2 [E,G,D]2 [E,G,D]2 [E,G,E]>[E,G,D] | %19
 [A,,A,]2 [A,,A,]2 [A,,A,]4 | [A,,A,]2 [A,,A,]2 [A,,A,]2 [A,,A,]>[A,,A,] | %21
 [D,F,]2 [D,B,]2 [D,B,]2 [=D,B,]2 | [E,B,]>[E,B,] [E,B,]>[E,A,] [E,G,]2 E,2 |[M:8/4] A,,8 z8 |] %24
V:3
 x8 | x8 | x8 | x8 | x8 | x8 | x8 | x8 | [E,,E,]2[K:treble] z2[K:bass] z4 | x8 | [B,,,B,,]2 z2 z4 | %11
 x8 | [E,,E,]2[K:treble] z2[K:bass] z4 | x8 | [B,,B,]2[K:treble] z2[K:bass] z4 | x8 | x8 | x8 | %18
 x8 | x8 | x8 | x8 | x8 |[M:8/4] x16 |] %24

